X:1
T:Title
%%score { ( 1 4 ) | ( 2 3 ) }
L:1/8
Q:1/4=90
M:2/4
K:G
V:1 treble nm="Grand Piano"
V:4 treble 
V:2 bass 
V:3 bass 
V:1
 [B,D]2 G>A | B3 B | Bc AB | [G,B,G] [B,D]3 | [CE]F GE | [B,D]G cB | [^CB]2 [CA]2 | [CA]4 | %8
w: J.~P.~Scholfield * *||||||||
 [B,D]2 G>A | B3 B | Bc AB | [G,B,G] [B,D]3 | [CE]F GE | [B,D]G Bd/c/ | [DB]2 [CA]2 | [B,G]4 | %16
w: ||||||||
 d2 B>c | d3 [B,DG]/[G,DF]/ | [G,CE][CEG] [EGc][Ge] | [Gd] [GB]3 | [Gc]2 [Gd]>[Ge] | [Gd][DB] AG | %22
w: ||||||
 EF [^CEG][CGA] | [FA]3- [CFA] | d2 B>c | d3 [B,DG]/[G,DF]/ | [G,CE][CEG] [EGc][Ge] | d B3 | %28
w: ||||||
 EF GA | B[Gc] [Gd][Ge] | %30
w: ||
 [Fd]2 [DF]2[Q:1/4=89][Q:1/4=87][Q:1/4=86][Q:1/4=84][Q:1/4=83][Q:1/4=82][Q:1/4=80][Q:1/4=79][Q:1/4=77][Q:1/4=76][Q:1/4=75][Q:1/4=73][Q:1/4=72][Q:1/4=70][Q:1/4=69] | %31
w: |
 [B,DG]4 |] %32
w: |
V:2
 z2 B,>C | D3 D | DE CD | G,,D, B,,G,, | z D EC | z B, ED | [E,,E,]2 [A,,A,]2 | [D,,D,]4 | %8
 z2 B,>C | D3 D | DE CD | G,,D, B,,D, | z D EC | z B, DB,/E/ | [D,,D,]2 D,E,/F,/ | G,D, G,,2 | %16
 [G,,G,B,G]2[K:treble] [G,D]>[G,A,D] | [G,B,G]3[K:bass] G,,/B,,/ | C,C, C,[C,C] | [G,B,] [G,D]3 | %20
 [E,C]2 [D,B,]>[C,C] | [B,,G,][G,,G,] [D,F,C][E,G,B,] | [E,G,^C][E,A,C] A,,A,, | D,C, B,,A,, | %24
 [G,,G,B,G]2[K:treble] [G,D]>[G,A,D] | [G,B,G]3[K:bass] G,,/B,,/ | C,C, C,[C,C] | [G,B,G] [G,DG]3 | %28
 E,F, G,A, | [G,DG][E,C] [D,B,][C,C] | [D,A,]2 [D,C]2 | [G,,G,]4 |] %32
V:3
 [G,,G,]4- | [G,,G,]4 | [D,G,]2 [D,F,]2 | x4 | [C,,C,]4 | [G,,G,]4 | x4 | x4 | [G,,G,]4- | %9
 [G,,G,]4 | [D,G,]2 [D,F,]2 | x4 | [C,,C,]4 | [G,,G,]4 | x4 | x4 | x2[K:treble] x2 | x3[K:bass] x | %18
 x4 | x4 | x4 | x4 | x4 | x4 | x2[K:treble] x2 | x3[K:bass] x | x4 | x4 | x4 | x4 | x4 | x4 |] %32
V:4
 x4 | x4 | x4 | x4 | x4 | x4 | x4 | x4 | x4 | x4 | x4 | x4 | x4 | x4 | x4 | z2 G,2 | x4 | x4 | x4 | %19
 x4 | x4 | x4 | x4 | D4 | x4 | x4 | x4 | x4 | x4 | x4 | x4 | x4 |] %32

